X: 2
T: Haapavesi Harmony I
M: 3/4
L: 1/8
R: waltz
K:D
A GE|"D"EF FD ED|EF FD EF|"Em7"G2 GB AG|
"A"A3 A GE|"D"EF FD ED|EF FD EF|"Em7"G2 GB AG|"D"F3 :|]
|:z1 de| "D"f2 fe dA|"G"B3 d2 B| "A"AE EA EA|
 A2 E2 de|"D"f2 fe dA|"G"B3 d2 B|"A"c2cB AG|"D"F3:|]

